X:304
T:Red Box
Z: id:dc-reel-25
M:C
L:1/8
K:D Mixolydian
g|afge fdd2|cABG AFDE|FEFG A3B|cBAB cdeg|!
afge fdd2|cABG AFDE|FEFG A3B|cAGE FDD:|!
A|cBce gecA|d^cdf afdf|g2bg f2af|edef edBA|!
cBce gecA|d^cdf afdf|gfeg fedB|cAGE FDD:|!

